public/assets/imgs/projetos/icons/sofa-icon.svg

<svg fill="none" height="204" viewBox="0 0 194 204" width="194" xmlns="http://www.w3.org/2000/svg"><path clip-rule="evenodd" d="m121.5 39.7c13.2-29.6 16.9-37.4 18.3-38.5 1.1-.8 6.1-1.2 16.7-1.2 13.3 0 15.4.2 16.8 1.8.9 1 2.8 4.4 4.2 7.5 1.4 3.2 2.5 6.4 2.5 7.1 0 .8-.7 1.7-1.6 2-.9.4-2.2.2-2.9-.4s-2.3-3.5-3.6-6.5l-2.4-5.5h-13.1-13.1l-8.7 19.3c-4.7 10.6-8.6 19.8-8.6 20.5 0 .9 7 1.2 30.5 1.2 18.7 0 30.5-.4 30.5-1 0-.5-1.8-5-4-10.1-2.3-5.1-3.9-9.8-3.6-10.6.3-.7 1.5-1.3 2.6-1.3 1.6 0 3 2 6.6 9.7 2.4 5.3 4.7 10.7 5 11.9.4 1.6-.2 3-2 4.8-2.3 2.4-3.1 2.6-12.4 2.6-6.416 0-8.674 0-9.632 1.1159-.52.6061-.657 1.5412-.868 2.9841-.3 2.2-1.3 4.9-2.2 5.9s-3 2.2-4.6 2.5c-.32.0772-.604.1458-.857.2756-2.043 1.0476-2.043 6.0788-2.043 51.7244 0 45.803 0 50.711 2.206 52.091.265.166.562.28.894.409 1.7.7 3.5 2.4 4 3.7s.9 4 .9 5.9c0 2.9.4 3.4 2.3 3.4 1.2 0 3.7.9 5.5 2s4.1 3.4 5.2 5.2 2 4.6 2 6.1c0 1.6-1 3.8-2.5 5.2-2.4 2.5-2.5 2.5-22.8 2.5-19.2 0-20.6-.1-23.1-2.1-1.9-1.5-2.6-3-2.6-5.6 0-2 .9-5 2-6.8s3.6-4 5.4-4.9c1.9-.9 4.3-1.6 5.5-1.6 1.8 0 2.1-.6 2.1-4.1 0-2.2.5-4.9 1.1-6 .5-1.1 2.1-2.4 3.5-2.9.209-.087.4-.167.575-.274 1.825-1.117 1.825-5.216 1.825-52.226 0-46.3775 0-50.9905-1.826-51.8875-.201-.0991-.425-.1528-.674-.2125-1.4-.3-3.4-1.8-4.5-3.1-1.1-1.4-2-4.1-2-5.9 0-1.1395 0-1.8971-.358-2.4008-.709-.9992-2.826-.9992-9.142-.9992-5.2 0-10.6-.5-12-1.2-1.4-.6-2.8-2.2-3.1-3.5-.4-1.5.4-4.7 2.1-8.6zm39.671 19.1352c.432-.4693.505-1.2697.629-2.6352.119-1.2733.191-2.0399-.15-2.5015-.516-.6985-1.977-.6985-5.65-.6985s-5.134 0-5.65.6985c-.341.4616-.269 1.2282-.15 2.5015.124 1.3655.197 2.1659.629 2.6352.613.6648 1.947.6648 5.171.6648s4.558 0 5.171-.6648zm-.591 123.6088c.437-.499.362-1.446.22-3.244-.3-3.5-.5-3.7-3.8-4-2-.2-3.9 0-4.3.4s-.7 2.2-.7 4.1c0 3.3.1 3.3 4.6 3.3 2.371 0 3.493 0 3.98-.556zm15.22 13.456c.1-.9-.6-2.7-1.7-4-1.8-2.3-2.5-2.4-17-2.7-15-.3-15.1-.3-17.6 2.2-1.4 1.4-2.5 3.4-2.5 4.6 0 2 .4 2 19.2 1.8 16.7-.3 19.3-.5 19.6-1.9zm-148.2-124.4c1.5-1 3.9-2.1 5.3-2.6 1.4-.4 19.1-.7 39.2-.6h.0001.0001.0001c31.6747.1736 35.8617.1965 39.0947 1.9641.493.2693.963.579 1.505.9359 2.2 1.4 4.7 4.2 5.6 6.1 1.4 2.9 1.7 7 1.7 24.5v21l7 .4c6 .3 7.3.7 10 3.3 1.7 1.6 3.5 4.6 4.1 6.8.8 3.2.7 4.5-1.1 8.1-1.2 2.7-3.3 5-5.4 6.1-.935.522-1.613.901-2.112 1.444-1.318 1.431-1.398 4.003-1.688 13.356-.208 8.959-.272 11.696-1.531 13.671-.554.869-1.339 1.59-2.469 2.629-2.7 2.4-4.7 3.4-7.1 3.4-1.9 0-3.6.2-3.8.5-.3.2-.1 4.3.4 9 .8 7.6.8 8.8-.8 10.5-1.3 1.5-3.1 2-6.5 2-4.1 0-5.1-.4-7.1-2.9-1.2-1.6-3.4-6.4-4.8-10.7l-2.6-7.9h-24.5-24.5l-3 9.1c-1.6 5.1-3.6 9.9-4.4 10.8-.9 1-3 1.6-6.1 1.6-3.4 0-5.2-.5-6.5-2-1.6-1.8-1.7-2.8-.8-10.2.6-4.6.8-8.6.6-9.1-.2-.4-1.9-.7-3.7-.7-1.9 0-4.5-.9-6.1-2.2-1.5-1.2-3.4-3.6-4.1-5.4-.9-2.2-1.4-7.3-1.4-14.4 0-10.7-.1-11.1-2.3-11.9-1.3-.5-3.6-2.4-5-4.1-2.1-2.5-2.7-4.2-2.7-7.9 0-3.4.6-5.6 2.1-7.5 1.1-1.4 3.4-3.3 4.9-4.1 1.6-.8 5.4-1.5 8.4-1.5h5.5l.3-8.8.0025-.072c.2975-8.429.3045-8.628 2.7975-8.628 2.4929 0 2.5.199 2.7974 8.528l.0026.072.0009.027c.2991 8.573.3027 8.675 3.6991 10.973 1.9 1.3 3.9 3.4 4.4 4.7.6 1.3 1.1 4.8 1.1 7.8 0 3.22 0 4.588.6272 4.999.4637.303 1.2701.084 2.6728-.299 1.7-.4 15.6-.8 30.7-.8s29.2.3 31.3.7c1.591.301 2.498.473 3.015.101.685-.492.685-1.938.685-5.301 0-5.2.4-6.4 3.1-9.5 1.7-1.9 3.7-3.5 4.5-3.5 1.2 0 1.4-3.7 1.4-21.3s-.3-21.6-1.6-23.5c-.8-1.2-2.8-2.9-4.4-3.7-2.4-1.2-8.7-1.5-37-1.5-26.3 0-34.8.3-37.3 1.3-1.8.8-3.9 2.2-4.7 3.2-1 1.2-1.7 4.9-2 10.9-.5 8.9-.6 9.1-3 9.1-2.493 0-2.5-.1989-2.7975-8.6284l-.0025-.0716c-.2-7.1.1-9.4 1.7-12.6 1.1-2.1 3.2-4.7 4.7-5.7zm3.4 77.7c-.5-15.7-.6-16.5-2.9-18.3-1.8-1.5-3.9-1.9-10.2-1.9-6.6 0-8.2.3-9.9 2-1.1 1.1-2 3.2-2 4.8 0 1.5.7 3.8 1.6 5 .8 1.2 2.4 2.2 3.4 2.2s2.5.3 3.4.6c1.4.5 1.6 2.8 1.6 14.5 0 12.6.2 14.1 2 15.9 1.9 1.9 3.3 2 52.5 2s50.6-.1 52.5-2c1.8-1.8 2-3.3 2-15.3 0-9 .4-13.7 1.2-14.5.7-.7 2.2-1.2 3.3-1.2 1.2 0 2.9-.8 3.8-1.8 1-1 1.7-3.5 1.7-5.5 0-5.2-2.6-6.7-12-6.7-5.2 0-8.2.5-9.8 1.6-2.1 1.5-2.2 2.1-2.2 17.3 0 12.2-.3 16.1-1.4 17-.9.8-12.2 1-39.7.9l-38.4-.3zm72.9 2.5c-.7-1.5-2.5-2.9-4.9-3.6s-13.1-1.1-29.6-1c-14.3 0-26.9.4-28 .9-1.2.5-2.9 1.9-3.8 3.2-.9 1.2-1.6 3.7-1.6 5.5v3.3h34.5c28.8395 0 33.571 0 34.348-1.752.152-.344.152-.756.152-1.248 0-1.6-.5-4-1.1-5.3zm-67.3 38.9c1.3-3.8 2.1-7.3 1.8-7.8-.3-.4-1.6-.8-2.9-.8s-2.8.8-3.3 1.7c-.5 1-1.2 4.6-1.5 8.1-.5 5.9-.4 6.3 1.5 6 1.6-.2 2.6-2 4.4-7.2zm73.8.6c-.3-3.7-.7-7.3-1-8-.2-.6-1.6-1.2-3.2-1.2s-3.1.3-3.4.6c-.4.3.5 3.9 1.9 8 1.9 5.8 2.9 7.4 4.4 7.4 1.8 0 1.9-.5 1.3-6.8zm-58.0636-101.9153v-2.3632c0-.5109.7695-.9215 1.5907-.9215s1.4461.4106 1.4461.8485v2.4362h2.7053c.5109 0 .9215.7694.9215 1.5907 0 .8212-.4106 1.4461-.8485 1.4461h-2.7782v2.757c0 .511-.7695.9215-1.5907.9215s-1.4461-.4105-1.4461-.8485v-2.83h-2.415c-.5109 0-.9215-.7695-.9215-1.5907 0-.8213.4106-1.4461.8485-1.4461zm0 23.6373v2.363h-2.4879c-.4379 0-.8485.625-.8485 1.446s.4106 1.59.9215 1.59h2.415v2.83c0 .438.6249.849 1.4461.849s1.5907-.411 1.5907-.922v-2.757h2.7782c.4379 0 .8485-.624.8485-1.446 0-.821-.4106-1.59-.9215-1.59h-2.7053v-2.436c0-.438-.6249-.849-1.4461-.849s-1.5907.411-1.5907.922zm33-23.6373v-2.3632c0-.5109.7695-.9215 1.5907-.9215.8213 0 1.4461.4106 1.4461.8485v2.4362h2.7053c.5109 0 .9215.7694.9215 1.5907 0 .8212-.4106 1.4461-.8485 1.4461h-2.7782v2.757c0 .511-.7694.9215-1.5907.9215-.8212 0-1.4461-.4105-1.4461-.8485v-2.83h-2.415c-.5109 0-.9215-.7695-.9215-1.5907 0-.8213.4106-1.4461.8485-1.4461zm0 23.6373v2.363h-2.4879c-.4379 0-.8485.625-.8485 1.446s.4106 1.59.9215 1.59h2.415v2.83c0 .438.6249.849 1.4461.849.8213 0 1.5907-.411 1.5907-.922v-2.757h2.7782c.4379 0 .8485-.624.8485-1.446 0-.821-.4106-1.59-.9215-1.59h-2.7053v-2.436c0-.438-.6248-.849-1.4461-.849-.8212 0-1.5907.411-1.5907.922z" fill="#000" fill-rule="evenodd"/></svg>

<svg width="194" height="204" viewBox="0 0 194 204" fill="none" xmlns="http://www.w3.org/2000/svg">
<path fill-rule="evenodd" clip-rule="evenodd" d="M121.5 39.7C134.7 10.1 138.4 2.3 139.8 1.2C140.9 0.4 145.9 0 156.5 0C169.8 0 171.9 0.2 173.3 1.8C174.2 2.8 176.1 6.2 177.5 9.3C178.9 12.5 180 15.7 180 16.4C180 17.2 179.3 18.1 178.4 18.4C177.5 18.8 176.2 18.6 175.5 18C174.8 17.4 173.2 14.5 171.9 11.5L169.5 6H156.4H143.3L134.6 25.3C129.9 35.9 126 45.1 126 45.8C126 46.7 133 47 156.5 47C175.2 47 187 46.6 187 46C187 45.5 185.2 41 183 35.9C180.7 30.8 179.1 26.1 179.4 25.3C179.7 24.6 180.9 24 182 24C183.6 24 185 26 188.6 33.7C191 39 193.3 44.4 193.6 45.6C194 47.2 193.4 48.6 191.6 50.4C189.3 52.8 188.5 53 179.2 53C172.784 53 170.526 53 169.568 54.1159C169.048 54.722 168.911 55.6571 168.7 57.1C168.4 59.3 167.4 62 166.5 63C165.6 64 163.5 65.2 161.9 65.5C161.58 65.5772 161.296 65.6458 161.043 65.7756C159 66.8232 159 71.8544 159 117.5C159 163.303 159 168.211 161.206 169.591C161.471 169.757 161.768 169.871 162.1 170C163.8 170.7 165.6 172.4 166.1 173.7C166.6 175 167 177.7 167 179.6C167 182.5 167.4 183 169.3 183C170.5 183 173 183.9 174.8 185C176.6 186.1 178.9 188.4 180 190.2C181.1 192 182 194.8 182 196.3C182 197.9 181 200.1 179.5 201.5C177.1 204 177 204 156.7 204C137.5 204 136.1 203.9 133.6 201.9C131.7 200.4 131 198.9 131 196.3C131 194.3 131.9 191.3 133 189.5C134.1 187.7 136.6 185.5 138.4 184.6C140.3 183.7 142.7 183 143.9 183C145.7 183 146 182.4 146 178.9C146 176.7 146.5 174 147.1 172.9C147.6 171.8 149.2 170.5 150.6 170C150.809 169.913 151 169.833 151.175 169.726C153 168.609 153 164.51 153 117.5C153 71.1225 153 66.5095 151.174 65.6125C150.973 65.5134 150.749 65.4597 150.5 65.4C149.1 65.1 147.1 63.6 146 62.3C144.9 60.9 144 58.2 144 56.4C144 55.2605 144 54.5029 143.642 53.9992C142.933 53 140.816 53 134.5 53C129.3 53 123.9 52.5 122.5 51.8C121.1 51.2 119.7 49.6 119.4 48.3C119 46.8 119.8 43.6 121.5 39.7ZM161.171 58.8352C161.603 58.3659 161.676 57.5655 161.8 56.2C161.919 54.9267 161.991 54.1601 161.65 53.6985C161.134 53 159.673 53 156 53C152.327 53 150.866 53 150.35 53.6985C150.009 54.1601 150.081 54.9267 150.2 56.2C150.324 57.5655 150.397 58.3659 150.829 58.8352C151.442 59.5 152.776 59.5 156 59.5C159.224 59.5 160.558 59.5 161.171 58.8352ZM160.58 182.444C161.017 181.945 160.942 180.998 160.8 179.2C160.5 175.7 160.3 175.5 157 175.2C155 175 153.1 175.2 152.7 175.6C152.3 176 152 177.8 152 179.7C152 183 152.1 183 156.6 183C158.971 183 160.093 183 160.58 182.444ZM175.8 195.9C175.9 195 175.2 193.2 174.1 191.9C172.3 189.6 171.6 189.5 157.1 189.2C142.1 188.9 142 188.9 139.5 191.4C138.1 192.8 137 194.8 137 196C137 198 137.4 198 156.2 197.8C172.9 197.5 175.5 197.3 175.8 195.9ZM27.6 71.5C29.1 70.5 31.5 69.4 32.9 68.9C34.3 68.5 52 68.2 72.1 68.3H72.1001H72.1001H72.1002H72.1003C103.775 68.4736 107.962 68.4965 111.195 70.2641C111.688 70.5334 112.158 70.8431 112.7 71.2C114.9 72.6 117.4 75.4 118.3 77.3C119.7 80.2 120 84.3 120 101.8V122.8L127 123.2C133 123.5 134.3 123.9 137 126.5C138.7 128.1 140.5 131.1 141.1 133.3C141.9 136.5 141.8 137.8 140 141.4C138.8 144.1 136.7 146.4 134.6 147.5C133.665 148.022 132.987 148.401 132.488 148.944C131.17 150.375 131.09 152.947 130.8 162.3V162.3V162.3C130.592 171.259 130.528 173.996 129.269 175.971C128.715 176.84 127.93 177.561 126.8 178.6C124.1 181 122.1 182 119.7 182C117.8 182 116.1 182.2 115.9 182.5C115.6 182.7 115.8 186.8 116.3 191.5C117.1 199.1 117.1 200.3 115.5 202C114.2 203.5 112.4 204 109 204C104.9 204 103.9 203.6 101.9 201.1C100.7 199.5 98.5 194.7 97.1 190.4L94.5 182.5H70H45.5L42.5 191.6C40.9 196.7 38.9 201.5 38.1 202.4C37.2 203.4 35.1 204 32 204C28.6 204 26.8 203.5 25.5 202C23.9 200.2 23.8 199.2 24.7 191.8C25.3 187.2 25.5 183.2 25.3 182.7C25.1 182.3 23.4 182 21.6 182C19.7 182 17.1 181.1 15.5 179.8C14 178.6 12.1 176.2 11.4 174.4C10.5 172.2 10 167.1 10 160C10 149.3 9.9 148.9 7.7 148.1C6.4 147.6 4.1 145.7 2.7 144C0.6 141.5 0 139.8 0 136.1C0 132.7 0.6 130.5 2.1 128.6C3.2 127.2 5.5 125.3 7 124.5C8.6 123.7 12.4 123 15.4 123H20.9L21.2 114.2L21.2025 114.128C21.5 105.699 21.507 105.5 24 105.5C26.4929 105.5 26.5 105.699 26.7974 114.028L26.8 114.1L26.8009 114.127C27.1 122.7 27.1036 122.802 30.5 125.1C32.4 126.4 34.4 128.5 34.9 129.8C35.5 131.1 36 134.6 36 137.6C36 140.82 36 142.188 36.6272 142.599C37.0909 142.902 37.8973 142.683 39.3 142.3C41 141.9 54.9 141.5 70 141.5C85.1 141.5 99.2 141.8 101.3 142.2C102.891 142.501 103.798 142.673 104.315 142.301C105 141.809 105 140.363 105 137C105 131.8 105.4 130.6 108.1 127.5C109.8 125.6 111.8 124 112.6 124C113.8 124 114 120.3 114 102.7C114 85.1 113.7 81.1 112.4 79.2C111.6 78 109.6 76.3 108 75.5C105.6 74.3 99.3 74 71 74C44.7 74 36.2 74.3 33.7 75.3C31.9 76.1 29.8 77.5 29 78.5C28 79.7 27.3 83.4 27 89.4C26.5 98.3 26.4 98.5 24 98.5C21.507 98.5 21.5 98.3011 21.2025 89.8716L21.2 89.8C21 82.7 21.3 80.4 22.9 77.2C24 75.1 26.1 72.5 27.6 71.5ZM31 149.2C30.5 133.5 30.4 132.7 28.1 130.9C26.3 129.4 24.2 129 17.9 129C11.3 129 9.7 129.3 8 131C6.9 132.1 6 134.2 6 135.8C6 137.3 6.7 139.6 7.6 140.8C8.4 142 10 143 11 143C12 143 13.5 143.3 14.4 143.6C15.8 144.1 16 146.4 16 158.1C16 170.7 16.2 172.2 18 174C19.9 175.9 21.3 176 70.5 176C119.7 176 121.1 175.9 123 174C124.8 172.2 125 170.7 125 158.7C125 149.7 125.4 145 126.2 144.2C126.9 143.5 128.4 143 129.5 143C130.7 143 132.4 142.2 133.3 141.2C134.3 140.2 135 137.7 135 135.7C135 130.5 132.4 129 123 129C117.8 129 114.8 129.5 113.2 130.6C111.1 132.1 111 132.7 111 147.9C111 160.1 110.7 164 109.6 164.9C108.7 165.7 97.4 165.9 69.9 165.8L31.5 165.5L31 149.2ZM103.9 151.7C103.2 150.2 101.4 148.8 99 148.1C96.6 147.4 85.9 147 69.4 147.1C55.1 147.1 42.5 147.5 41.4 148C40.2 148.5 38.5 149.9 37.6 151.2C36.7 152.4 36 154.9 36 156.7V160H70.5C99.3395 160 104.071 160 104.848 158.248C105 157.904 105 157.492 105 157C105 155.4 104.5 153 103.9 151.7ZM36.6 190.6C37.9 186.8 38.7 183.3 38.4 182.8C38.1 182.4 36.8 182 35.5 182C34.2 182 32.7 182.8 32.2 183.7C31.7 184.7 31 188.3 30.7 191.8C30.2 197.7 30.3 198.1 32.2 197.8C33.8 197.6 34.8 195.8 36.6 190.6ZM110.4 191.2C110.1 187.5 109.7 183.9 109.4 183.2C109.2 182.6 107.8 182 106.2 182C104.6 182 103.1 182.3 102.8 182.6C102.4 182.9 103.3 186.5 104.7 190.6C106.6 196.4 107.6 198 109.1 198C110.9 198 111 197.5 110.4 191.2ZM52.3364 89.2847V86.9215C52.3364 86.4106 53.1059 86 53.9271 86C54.7483 86 55.3732 86.4106 55.3732 86.8485V89.2847H58.0785C58.5894 89.2847 59 90.0541 59 90.8754C59 91.6966 58.5894 92.3215 58.1515 92.3215H55.3733V95.0785C55.3733 95.5895 54.6038 96 53.7826 96C52.9614 96 52.3365 95.5895 52.3365 95.1515V92.3215H49.9215C49.4106 92.3215 49 91.552 49 90.7308C49 89.9095 49.4106 89.2847 49.8485 89.2847H52.3364ZM52.3364 112.922V115.285H49.8485C49.4106 115.285 49 115.91 49 116.731C49 117.552 49.4106 118.321 49.9215 118.321H52.3365V121.151C52.3365 121.589 52.9614 122 53.7826 122C54.6038 122 55.3733 121.589 55.3733 121.078V118.321H58.1515C58.5894 118.321 59 117.697 59 116.875C59 116.054 58.5894 115.285 58.0785 115.285H55.3732V112.849C55.3732 112.411 54.7483 112 53.9271 112C53.1059 112 52.3364 112.411 52.3364 112.922ZM85.3364 89.2847V86.9215C85.3364 86.4106 86.1059 86 86.9271 86C87.7484 86 88.3732 86.4106 88.3732 86.8485V89.2847H91.0785C91.5894 89.2847 92 90.0541 92 90.8754C92 91.6966 91.5894 92.3215 91.1515 92.3215H88.3733V95.0785C88.3733 95.5895 87.6039 96 86.7826 96C85.9614 96 85.3365 95.5895 85.3365 95.1515V92.3215H82.9215C82.4106 92.3215 82 91.552 82 90.7308C82 89.9095 82.4106 89.2847 82.8485 89.2847H85.3364ZM85.3364 112.922V115.285H82.8485C82.4106 115.285 82 115.91 82 116.731C82 117.552 82.4106 118.321 82.9215 118.321H85.3365V121.151C85.3365 121.589 85.9614 122 86.7826 122C87.6039 122 88.3733 121.589 88.3733 121.078V118.321H91.1515C91.5894 118.321 92 117.697 92 116.875C92 116.054 91.5894 115.285 91.0785 115.285H88.3732V112.849C88.3732 112.411 87.7484 112 86.9271 112C86.1059 112 85.3364 112.411 85.3364 112.922Z" fill="black"/>
</svg>
